X:1
T:Danny Mackay's
L:1/8
M:4/4
I:linebreak $
K:G
V:1 treble 
V:1
 A | B<Gd>G B<GG>A | B<Gd>B c/B/A/G/ =F>A | B<Gd>G B>cd<g | =f>dc>A B<G G :|$ f | g>be<g d>gB>g | %7
 d>gB>d c/B/A/G/ =F>^f | g>be<g d>gB>d | c/B/A/G/ =F>A B<GG^f |$ g>be<g d>g (3Bgg | %11
 d>gB>d c/B/A/G/ =F>A | B<Gd>G B>cd<g | =f>dc>A B<G G |] %14
